outputs/icons/enterprise/card_orientation_round.svg

<svg xmlns="http://www.w3.org/2000/svg" width="1200" height="1200" fill="none"><path fill="#000" d="M631.545 478.467c13.51.001 24.785 5.688 25.145 12.793l2.735 53.515c.395 7.705-10.865 14.01-25.15 14.015H530.76c-14.275-.005-25.51-6.31-25.095-14.015l2.735-53.515c.375-7.143 11.615-12.793 25.145-12.793z"/><path fill="#000" fill-rule="evenodd" d="M771.825 429.394c39.135.003 74.005 16.116 77.785 36.426l34.325 182.815L419.824 950h-97.607c-53.807 0-92.045-29.655-85.449-64.845l78.613-419.335c3.81-20.315 38.689-36.426 77.832-36.426zm-381.884 24.219c-13.299 0-24.91 5.499-25.976 12.354l-64.356 419.338c-1.789 11.585 11.006 21.135 28.565 21.14h95.361l17.822-208.64c2.337-27.37 41.145-49.025 86.378-49.025H829.1l-28.025-182.813c-1.045-6.857-12.695-12.354-25.975-12.354zm102.197 355.032-2.831 56.005 88.183-56.005zM526.66 681.15c-15.455 0-28.386 7.45-28.858 16.7l-.829 16.945 228.172.05 53.03-33.695z"/><path fill="#000" d="M894.385 300a97.1 97.1 0 0 1 37.4 7.373c11.845 4.908 22.6 12.151 31.645 21.24l101.56 101.563L963.43 531.69c-8.995 9.02-19.695 16.23-31.45 21.14l-12.89-68.845 53.86-53.809-55.565-55.567a32.6 32.6 0 0 0-10.55-7.079c-3.94-1.631-8.185-2.444-12.45-2.442H270.557a32.55 32.55 0 0 0-22.998 9.521l-55.518 55.567 53.809 53.809-12.891 68.845c-11.748-4.915-22.402-12.125-31.396-21.14L100 430.176l101.563-101.563c9.046-9.091 19.79-16.332 31.64-21.24A97 97 0 0 1 270.557 300z"/></svg>

<svg width="1200" height="1200" viewBox="0 0 1200 1200" fill="none" xmlns="http://www.w3.org/2000/svg"><path d="M631.545 478.467C645.055 478.468 656.33 484.155 656.69 491.26L659.425 544.775C659.82 552.48 648.56 558.785 634.275 558.79H530.76C516.485 558.785 505.25 552.48 505.665 544.775L508.4 491.26C508.775 484.117 520.015 478.467 533.545 478.467H631.545Z" fill="black"/><path fill-rule="evenodd" d="M771.825 429.394C810.96 429.397 845.83 445.51 849.61 465.82L883.935 648.635L419.824 950H322.217C268.41 950 230.172 920.345 236.768 885.155L315.381 465.82C319.191 445.505 354.07 429.394 393.213 429.394H771.825ZM389.941 453.613C376.642 453.613 365.031 459.112 363.965 465.967L299.609 885.305C297.82 896.89 310.615 906.44 328.174 906.445H423.535L441.357 697.805C443.694 670.435 482.502 648.78 527.735 648.78H829.1L801.075 465.967C800.03 459.11 788.38 453.613 775.1 453.613H389.941ZM492.138 808.645L489.307 864.65L577.49 808.645H492.138ZM526.66 681.15C511.205 681.15 498.274 688.6 497.802 697.85L496.973 714.795L725.145 714.845L778.175 681.15H526.66Z" fill="black"/><path d="M894.385 300C907.205 299.966 919.94 302.466 931.785 307.373C943.63 312.281 954.385 319.524 963.43 328.613L1064.99 430.176L963.43 531.69C954.435 540.71 943.735 547.92 931.98 552.83L919.09 483.985L972.95 430.176L917.385 374.609C914.37 371.589 910.78 369.164 906.835 367.53C902.895 365.899 898.65 365.086 894.385 365.088H270.557C261.933 365.096 253.655 368.51 247.559 374.609L192.041 430.176L245.85 483.985L232.959 552.83C221.211 547.915 210.557 540.705 201.563 531.69L100 430.176L201.563 328.613C210.609 319.522 221.353 312.281 233.203 307.373C245.044 302.471 257.741 299.969 270.557 300H894.385Z" fill="black"/></svg>
